app/assets/v2/images/mission/interact/falcon_3.svg

<svg id="Layer_2" data-name="Layer 2" xmlns="http://www.w3.org/2000/svg" viewBox="0 0 562.04 941"><defs><style>.cls-1,.cls-7{fill:#ffd107}.cls-2,.cls-4{fill:none}.cls-2,.cls-3,.cls-6,.cls-7{stroke:#180041}.cls-2,.cls-3,.cls-4,.cls-6,.cls-7{stroke-linecap:round;stroke-linejoin:round;stroke-width:2.41px}.cls-10,.cls-3{fill:#180041}.cls-4{stroke:#fff}.cls-6,.cls-8{fill:#00ed92}</style></defs><circle class="cls-1" cx="413.93" cy="256.14" r="24.4"/><path class="cls-2" d="M209.82 364.89v218.87"/><path class="cls-3" d="M228.27 653.75s1.9-1.12 2.76-8.88 6.81-60.74 6.81-60.74S238 571 240.6 571s5.17 10.51 5.25 12.49 2.15 82.66 2.15 82.66l-2.24 1.38v5.09l-1.28 1.27h-33.12l-1.28-1.27v-5.09l-2.24-1.38s2.07-80.73 2.15-82.71 2.68-12.44 5.26-12.44 2.75 13.13 2.75 13.13 5.94 53 6.8 60.74 2.76 8.88 2.76 8.88z"/><path class="cls-4" d="M248.13 676.55s-2-26.39-6.85-26.39a8.72 8.72 0 0 0-7 3s-2 7.12-2.65 11.49a3.74 3.74 0 0 1-7.42 0 117.2 117.2 0 0 0-2.64-11.49 8.73 8.73 0 0 0-7-3c-4.82 0-7.24 25.58-7.24 25.58"/><path class="cls-2" d="M223.44 684.94l-.1-3.82A8.15 8.15 0 0 0 219 674h-.24a8.15 8.15 0 0 0-4.34 7.13l-.1 3.82zm-9.17-3.86h8.9"/><path class="cls-2" d="M232.47 684.94l-.11-3.82A8.15 8.15 0 0 0 228 674h-.25a8.15 8.15 0 0 0-4.33 7.13l-.11 3.82zm-9.18-3.86h8.91"/><path class="cls-2" d="M241.51 684.94l-.1-3.82a8.15 8.15 0 0 0-4.34-7.13h-.24a8.15 8.15 0 0 0-4.34 7.13l-.1 3.82zm-9.17-3.86h8.9m-27.88-343.13l-2.41 4.83v3.75l-2.95 2.95v14.89h11.4v-14.85l-2.62-2.79v-3.68l1.75-5.04-5.17-.06zm-2.03 7.34l5.04.34m-7.95 14.15l4.33 4.33m-4.33-9.97l9.5 9.5m-8.51-14.15l9.5 9.5m-7.3-12.95l7.17 7.17m.13 6.57l-4.33 4.33m4.33-9.97l-9.5 9.5m8.51-14.15l-9.5 9.5m7.3-12.95l-7.17 7.17m36.58 11.68v214.39"/><path class="cls-2" d="M245.13 346.88v-9.56s1-9.48-6.29-22.66-11.37-11.94-11.37-11.94-4.13-1.25-11.37 11.94-6.29 22.66-6.29 22.66v9.56"/><path class="cls-2" d="M241.59 337.95l2.42 4.83v3.75l2.95 2.95v14.89h-11.4v-14.85l2.61-2.79v-3.68l-1.74-5.04 5.16-.06zm2.04 7.34l-5.04.34m7.94 14.15l-4.33 4.33m4.33-9.97l-9.5 9.5m8.51-14.15l-9.5 9.5m7.31-12.95l-7.18 7.17m-.13 6.57l4.33 4.33m-4.33-9.97l9.5 9.5m-8.51-14.15l9.5 9.5m-7.3-12.95l7.17 7.17m56.63 11.68v218.87m3.55-245.81l-2.42 4.83v3.75l-2.95 2.95v14.89h11.4v-14.85l-2.61-2.79v-3.68l1.74-5.04-5.16-.06zm-2.04 7.34l5.04.34m-7.95 14.15l4.33 4.33m-4.33-9.97l9.5 9.5m-8.51-14.15l9.5 9.5m-7.3-12.95l7.17 7.17m.13 6.57l-4.33 4.33m4.33-9.97l-9.5 9.5m8.51-14.15l-9.5 9.5m7.31-12.95l-7.18 7.17m36.59 11.68v214.39"/><path class="cls-2" d="M338.35 346.88v-9.56s.94-9.48-6.29-22.66-11.38-11.94-11.38-11.94-4.14-1.25-11.38 11.94-6.3 22.66-6.3 22.66v9.56"/><path class="cls-2" d="M334.8 337.95l2.42 4.83v3.75l2.95 2.95v14.89h-11.4v-14.85l2.61-2.79v-3.68l-1.74-5.04 5.16-.06zm2.04 7.34l-5.04.34m7.95 14.15l-4.33 4.33m4.33-9.97l-9.5 9.5m8.5-14.15l-9.49 9.5m7.3-12.95l-7.17 7.17m-.13 6.57l4.33 4.33m-4.33-9.97l9.49 9.5m-8.5-14.15l9.5 9.5m-7.31-12.95l7.18 7.17"/><path class="cls-3" d="M321.17 653.75s1.9-1.12 2.76-8.88 6.8-60.74 6.8-60.74.18-13.18 2.76-13.18 5.17 10.51 5.26 12.49 2.15 82.71 2.15 82.71l-2.24 1.38v5.09l-1.28 1.27h-33.13l-1.25-1.27v-5.09l-2.24-1.38s2.06-80.73 2.15-82.71 2.65-12.44 5.24-12.44 2.75 13.18 2.75 13.18 6 53 6.81 60.74 2.76 8.88 2.76 8.88z"/><path class="cls-4" d="M341 676.55s-2-26.39-6.85-26.39a8.75 8.75 0 0 0-7 3 117.2 117.2 0 0 0-2.64 11.49 3.74 3.74 0 0 1-7.42 0c-.64-4.37-2.65-11.49-2.65-11.49a8.72 8.72 0 0 0-7-3c-4.83 0-7.24 25.58-7.24 25.58"/><path class="cls-2" d="M316.34 684.94l-.11-3.82a8.15 8.15 0 0 0-4.33-7.12h-.25a8.15 8.15 0 0 0-4.33 7.13l-.11 3.82zm-9.18-3.86h8.91"/><path class="cls-2" d="M325.36 684.94l-.1-3.82a8.15 8.15 0 0 0-4.34-7.13h-.24a8.15 8.15 0 0 0-4.34 7.13l-.1 3.82zm-9.17-3.86h8.9"/><path class="cls-2" d="M334.41 684.94l-.1-3.82A8.15 8.15 0 0 0 330 674h-.25a8.15 8.15 0 0 0-4.33 7.13l-.1 3.82zm-9.18-3.86h8.91"/><path d="M291.59 580.25v-378c8.33-5.57 7.89-12 7.89-12l-.12-67.95s.52-15.22-9.53-31.53-15.57-14.48-15.57-14.48h-.17s-5.51-1.83-15.56 14.48-9.53 31.5-9.53 31.5l-.11 68s-.45 6.44 7.88 12v378" fill="#fff" stroke-linecap="round" stroke-linejoin="round" stroke-width="2.41" stroke="#180041"/><path class="cls-2" d="M256.57 202.06h35.27m-32.1 135.89l-2.41 4.83v3.75l-2.95 2.95v14.89h11.4v-14.85l-2.62-2.79v-3.68l1.74-5.04-5.16-.06zm-2.03 7.34l5.04.34m-7.95 14.15l4.33 4.33m-4.33-9.97l9.5 9.5m-8.51-14.15l9.5 9.5m-7.3-12.95l7.17 7.17m.13 6.57l-4.33 4.33m4.33-9.97l-9.5 9.5m8.51-14.15l-9.5 9.5m7.3-12.95l-7.17 7.17m33.04-15.26l2.41 4.83v3.75l2.95 2.95v14.89h-11.4v-14.85l2.62-2.79v-3.68l-1.74-5.04 5.16-.06zm2.03 7.34l-5.04.34m7.95 14.15l-4.33 4.33m4.33-9.97l-9.5 9.5m8.51-14.15l-9.5 9.5m7.3-12.95l-7.17 7.17m-.13 6.57l4.33 4.33m-4.33-9.97l9.5 9.5m-8.51-14.15l9.5 9.5m-7.3-12.95l7.17 7.17m-19.41-151.5v62.89s-2.76 3.79-2.76 6.55 1 14.47 2.93 16.37 4-16.8 4-16.8-.34-4.57-4.18-6.12"/><path class="cls-3" d="M274.34 653.75s1.89-1.12 2.75-8.88l6.81-60.74s.17-13.18 2.76-13.18 5.17 10.51 5.25 12.49 2.16 82.71 2.16 82.71l-2.24 1.38v5.09l-1.28 1.27h-33.13l-1.28-1.27v-5.09l-2.24-1.38s2.07-80.73 2.16-82.71 2.67-12.44 5.25-12.44 2.76 13.18 2.76 13.18 5.95 53 6.81 60.74 2.75 8.88 2.75 8.88z"/><path class="cls-4" d="M294.2 676.55s-2-26.39-6.85-26.39a8.73 8.73 0 0 0-7 3 117.2 117.2 0 0 0-2.64 11.49 3.75 3.75 0 0 1-7.43 0 117.2 117.2 0 0 0-2.64-11.49 8.73 8.73 0 0 0-7-3c-4.82 0-7.24 25.58-7.24 25.58"/><path class="cls-2" d="M269.5 684.94l-.1-3.82a8.15 8.15 0 0 0-4.33-7.13h-.25a8.15 8.15 0 0 0-4.34 7.13l-.1 3.82zm-9.17-3.86h8.9"/><path class="cls-2" d="M278.53 684.94l-.1-3.82a8.15 8.15 0 0 0-4.34-7.13h-.24a8.15 8.15 0 0 0-4.34 7.13l-.1 3.82zm-9.18-3.86h8.91"/><path class="cls-2" d="M287.58 684.94l-.11-3.82a8.15 8.15 0 0 0-4.33-7.13h-.25a8.15 8.15 0 0 0-4.33 7.13l-.11 3.82zm-9.18-3.86h8.91M218.5 337.84h115.9"/><ellipse class="cls-2" cx="264.57" cy="123.71" rx="2.99" ry="2.18"/><ellipse class="cls-2" cx="264.57" cy="164.49" rx="2.99" ry="2.18"/><path class="cls-2" d="M144.03 729.92l3.2-5.84 3.19 5.84 5.84 3.2-5.84 3.19-3.19 5.85-3.2-5.85-5.84-3.19 5.84-3.2z"/><path class="cls-6" d="M83.65 545.21l3.19-5.84 3.2 5.84 5.84 3.19-5.84 3.2-3.2 5.84-3.19-5.84-5.84-3.2 5.84-3.19z"/><path class="cls-7" d="M55.32 911.21l3.19-5.84 3.2 5.84 5.84 3.19-5.84 3.2-3.2 5.84-3.19-5.84-5.85-3.2 5.85-3.19z"/><path class="cls-2" d="M414.21 389.31l3.2-5.84 3.19 5.84 5.85 3.2-5.85 3.2-3.19 5.84-3.2-5.84-5.84-3.2 5.84-3.2z"/><path class="cls-7" d="M149.37 365.93l3.2-5.84 3.19 5.84 5.85 3.2-5.85 3.19-3.19 5.85-3.2-5.85-5.84-3.19 5.84-3.2z"/><circle class="cls-1" cx="166.04" cy="705.6" r="2.92"/><circle class="cls-8" cx="343.37" cy="502.93" r="2.92"/><circle class="cls-1" cx="171.71" cy="398.85" r="2.92"/><circle class="cls-2" cx="157.04" cy="465.35" r="2.92"/><circle class="cls-2" cx="124.54" cy="561.6" r="2.92"/><path class="cls-6" d="M438.04 754.6l3.2-5.84 3.19 5.84 5.84 3.2-5.84 3.19-3.19 5.84-3.2-5.84-5.84-3.19 5.84-3.2z"/><circle class="cls-1" cx="459.43" cy="924.99" r="2.92"/><circle cx="501.43" cy="623.74" r="2.92" fill="#00ed92" stroke="#fff" stroke-linecap="round" stroke-linejoin="round" stroke-width="2.41"/><circle class="cls-2" cx="467.93" cy="790.99" r="2.92"/><circle class="cls-2" cx="417.59" cy="475.88" r="2.92"/><circle class="cls-2" cx="163.04" cy="775.52" r="2.92"/><circle class="cls-1" cx="439.72" cy="421.77" r="2.92"/><circle class="cls-1" cx="430.18" cy="598.04" r="2.92"/><path class="cls-10" d="M387.35 261.43a27.11 27.11 0 1 1 31.87 21.3 27.14 27.14 0 0 1-31.87-21.3zm50.51-10a24.39 24.39 0 1 0-19.17 28.68 24.42 24.42 0 0 0 19.17-28.72z"/><path class="cls-10" d="M423 232.23a1.33 1.33 0 0 1 .14-.91l5.86-10.7a1.35 1.35 0 0 1 .81-.65 1.37 1.37 0 0 1 1 .11L438 224a1.32 1.32 0 0 1 .65.81 1.28 1.28 0 0 1-.11 1l-2.6 4.76a1.37 1.37 0 0 1-1.85.53l-5.94-3.25-2.6 4.75a1.36 1.36 0 0 1-2.52-.39zm7.72-9.12l-1.3 2.38 4.75 2.6 1.31-2.37zm-22.88 16.28a4.07 4.07 0 1 1 4.78 3.2 4.07 4.07 0 0 1-4.78-3.2zm5.32-1a1.36 1.36 0 1 0-1.07 1.59 1.36 1.36 0 0 0 1.07-1.64zm5.57 7.13a5.42 5.42 0 1 1 6.38 4.26 5.43 5.43 0 0 1-6.38-4.26zm8-1.59a2.71 2.71 0 1 0-2.13 3.19 2.72 2.72 0 0 0 2.11-3.19zM394 253.2a9.49 9.49 0 1 1 11.16 7.45A9.51 9.51 0 0 1 394 253.2zm16-3.2a6.77 6.77 0 1 0-5.32 8 6.77 6.77 0 0 0 5.32-8z"/><path class="cls-8" transform="rotate(-61.27 432.422 225.607)" d="M431.09 222.89h2.71v5.42h-2.71z"/><path class="cls-1" d="M261.86 703.32c-.55-11.08-27-17.1-27-17.1h-17s-15.61 6-16.17 17.1 6.11 146.45 25 198a6 6 0 0 0 5.5 2.65 5.71 5.71 0 0 0 4.7-2.65c18.86-51.55 25.53-186.93 24.97-198z"/><path class="cls-1" d="M301.2 703.32c-.51-11.08-14.8-17.1-14.8-17.1H261s-14.29 6-14.8 17.1 5.59 146.45 22.84 198a5.38 5.38 0 0 0 5 2.65 5.22 5.22 0 0 0 4.31-2.65c17.25-51.55 23.36-186.93 22.85-198z"/><path class="cls-1" d="M347 703.32c-.57-11.08-16.37-17.1-16.37-17.1h-17s-26.94 6-27.51 17.1 6.19 146.45 25.26 198a6.07 6.07 0 0 0 5.57 2.65 5.77 5.77 0 0 0 4.76-2.65c19.05-51.55 25.8-186.93 25.29-198z"/></svg>

<svg id="Layer_2" data-name="Layer 2" xmlns="http://www.w3.org/2000/svg" viewBox="0 0 562.04 941"><defs><style>.cls-1,.cls-7{fill:#ffd107}.cls-2,.cls-4{fill:none}.cls-2,.cls-3,.cls-6,.cls-7{stroke:#180041}.cls-2,.cls-3,.cls-4,.cls-6,.cls-7{stroke-linecap:round;stroke-linejoin:round;stroke-width:2.41px}.cls-10,.cls-3{fill:#180041}.cls-4{stroke:#fff}.cls-6,.cls-8{fill:#00ed92}</style></defs><circle class="cls-1" cx="413.93" cy="256.14" r="24.4"/><path class="cls-2" d="M209.82 364.89v218.87"/><path class="cls-3" d="M228.27 653.75s1.9-1.12 2.76-8.88 6.81-60.74 6.81-60.74S238 571 240.6 571s5.17 10.51 5.25 12.49 2.15 82.66 2.15 82.66l-2.24 1.38v5.09l-1.28 1.27h-33.12l-1.28-1.27v-5.09l-2.24-1.38s2.07-80.73 2.15-82.71 2.68-12.44 5.26-12.44 2.75 13.13 2.75 13.13 5.94 53 6.8 60.74 2.76 8.88 2.76 8.88z"/><path class="cls-4" d="M248.13 676.55s-2-26.39-6.85-26.39a8.72 8.72 0 0 0-7 3s-2 7.12-2.65 11.49a3.74 3.74 0 0 1-7.42 0 117.2 117.2 0 0 0-2.64-11.49 8.73 8.73 0 0 0-7-3c-4.82 0-7.24 25.58-7.24 25.58"/><path class="cls-2" d="M223.44 684.94l-.1-3.82A8.15 8.15 0 0 0 219 674h-.24a8.15 8.15 0 0 0-4.34 7.13l-.1 3.82zM214.27 681.08h8.9"/><path class="cls-2" d="M232.47 684.94l-.11-3.82A8.15 8.15 0 0 0 228 674h-.25a8.15 8.15 0 0 0-4.33 7.13l-.11 3.82zM223.29 681.08h8.91"/><path class="cls-2" d="M241.51 684.94l-.1-3.82a8.15 8.15 0 0 0-4.34-7.13h-.24a8.15 8.15 0 0 0-4.34 7.13l-.1 3.82zM232.34 681.08h8.9M213.36 337.95l-2.41 4.83v3.75l-2.95 2.95v14.89h11.4v-14.85l-2.62-2.79v-3.68l1.75-5.04-5.17-.06zM211.33 345.29l5.04.34M208.42 359.78l4.33 4.33M208.42 354.14l9.5 9.5M209.41 349.49l9.5 9.5M211.61 346.04l7.17 7.17M218.91 359.78l-4.33 4.33M218.91 354.14l-9.5 9.5M217.92 349.49l-9.5 9.5M215.72 346.04l-7.17 7.17M245.13 364.89v214.39"/><path class="cls-2" d="M245.13 346.88v-9.56s1-9.48-6.29-22.66-11.37-11.94-11.37-11.94-4.13-1.25-11.37 11.94-6.29 22.66-6.29 22.66v9.56"/><path class="cls-2" d="M241.59 337.95l2.42 4.83v3.75l2.95 2.95v14.89h-11.4v-14.85l2.61-2.79v-3.68l-1.74-5.04 5.16-.06zM243.63 345.29l-5.04.34M246.53 359.78l-4.33 4.33M246.53 354.14l-9.5 9.5M245.54 349.49l-9.5 9.5M243.35 346.04l-7.18 7.17M236.04 359.78l4.33 4.33M236.04 354.14l9.5 9.5M237.03 349.49l9.5 9.5M239.23 346.04l7.17 7.17M303.03 364.89v218.87M306.58 337.95l-2.42 4.83v3.75l-2.95 2.95v14.89h11.4v-14.85l-2.61-2.79v-3.68l1.74-5.04-5.16-.06zM304.54 345.29l5.04.34M301.63 359.78l4.33 4.33M301.63 354.14l9.5 9.5M302.62 349.49l9.5 9.5M304.82 346.04l7.17 7.17M312.12 359.78l-4.33 4.33M312.12 354.14l-9.5 9.5M311.13 349.49l-9.5 9.5M308.94 346.04l-7.18 7.17M338.35 364.89v214.39"/><path class="cls-2" d="M338.35 346.88v-9.56s.94-9.48-6.29-22.66-11.38-11.94-11.38-11.94-4.14-1.25-11.38 11.94-6.3 22.66-6.3 22.66v9.56"/><path class="cls-2" d="M334.8 337.95l2.42 4.83v3.75l2.95 2.95v14.89h-11.4v-14.85l2.61-2.79v-3.68l-1.74-5.04 5.16-.06zM336.84 345.29l-5.04.34M339.75 359.78l-4.33 4.33M339.75 354.14l-9.5 9.5M338.75 349.49l-9.49 9.5M336.56 346.04l-7.17 7.17M329.26 359.78l4.33 4.33M329.26 354.14l9.49 9.5M330.25 349.49l9.5 9.5M332.44 346.04l7.18 7.17"/><path class="cls-3" d="M321.17 653.75s1.9-1.12 2.76-8.88 6.8-60.74 6.8-60.74.18-13.18 2.76-13.18 5.17 10.51 5.26 12.49 2.15 82.71 2.15 82.71l-2.24 1.38v5.09l-1.28 1.27h-33.13l-1.25-1.27v-5.09l-2.24-1.38s2.06-80.73 2.15-82.71 2.65-12.44 5.24-12.44 2.75 13.18 2.75 13.18 6 53 6.81 60.74 2.76 8.88 2.76 8.88z"/><path class="cls-4" d="M341 676.55s-2-26.39-6.85-26.39a8.75 8.75 0 0 0-7 3 117.2 117.2 0 0 0-2.64 11.49 3.74 3.74 0 0 1-7.42 0c-.64-4.37-2.65-11.49-2.65-11.49a8.72 8.72 0 0 0-7-3c-4.83 0-7.24 25.58-7.24 25.58"/><path class="cls-2" d="M316.34 684.94l-.11-3.82a8.15 8.15 0 0 0-4.33-7.12h-.25a8.15 8.15 0 0 0-4.33 7.13l-.11 3.82zM307.16 681.08h8.91"/><path class="cls-2" d="M325.36 684.94l-.1-3.82a8.15 8.15 0 0 0-4.34-7.13h-.24a8.15 8.15 0 0 0-4.34 7.13l-.1 3.82zM316.19 681.08h8.9"/><path class="cls-2" d="M334.41 684.94l-.1-3.82A8.15 8.15 0 0 0 330 674h-.25a8.15 8.15 0 0 0-4.33 7.13l-.1 3.82zM325.23 681.08h8.91"/><path d="M291.59 580.25v-378c8.33-5.57 7.89-12 7.89-12l-.12-67.95s.52-15.22-9.53-31.53-15.57-14.48-15.57-14.48h-.17s-5.51-1.83-15.56 14.48-9.53 31.5-9.53 31.5l-.11 68s-.45 6.44 7.88 12v378" fill="#fff" stroke-linecap="round" stroke-linejoin="round" stroke-width="2.41" stroke="#180041"/><path class="cls-2" d="M256.57 202.06h35.27M259.74 337.95l-2.41 4.83v3.75l-2.95 2.95v14.89h11.4v-14.85l-2.62-2.79v-3.68l1.74-5.04-5.16-.06zM257.71 345.29l5.04.34M254.8 359.78l4.33 4.33M254.8 354.14l9.5 9.5M255.79 349.49l9.5 9.5M257.99 346.04l7.17 7.17M265.29 359.78l-4.33 4.33M265.29 354.14l-9.5 9.5M264.3 349.49l-9.5 9.5M262.1 346.04l-7.17 7.17M287.97 337.95l2.41 4.83v3.75l2.95 2.95v14.89h-11.4v-14.85l2.62-2.79v-3.68l-1.74-5.04 5.16-.06zM290 345.29l-5.04.34M292.91 359.78l-4.33 4.33M292.91 354.14l-9.5 9.5M291.92 349.49l-9.5 9.5M289.72 346.04l-7.17 7.17M282.42 359.78l4.33 4.33M282.42 354.14l9.5 9.5M283.41 349.49l9.5 9.5M285.61 346.04l7.17 7.17M273.37 201.71v62.89s-2.76 3.79-2.76 6.55 1 14.47 2.93 16.37 4-16.8 4-16.8-.34-4.57-4.18-6.12"/><path class="cls-3" d="M274.34 653.75s1.89-1.12 2.75-8.88l6.81-60.74s.17-13.18 2.76-13.18 5.17 10.51 5.25 12.49 2.16 82.71 2.16 82.71l-2.24 1.38v5.09l-1.28 1.27h-33.13l-1.28-1.27v-5.09l-2.24-1.38s2.07-80.73 2.16-82.71 2.67-12.44 5.25-12.44 2.76 13.18 2.76 13.18 5.95 53 6.81 60.74 2.75 8.88 2.75 8.88z"/><path class="cls-4" d="M294.2 676.55s-2-26.39-6.85-26.39a8.73 8.73 0 0 0-7 3 117.2 117.2 0 0 0-2.64 11.49 3.75 3.75 0 0 1-7.43 0 117.2 117.2 0 0 0-2.64-11.49 8.73 8.73 0 0 0-7-3c-4.82 0-7.24 25.58-7.24 25.58"/><path class="cls-2" d="M269.5 684.94l-.1-3.82a8.15 8.15 0 0 0-4.33-7.13h-.25a8.15 8.15 0 0 0-4.34 7.13l-.1 3.82zM260.33 681.08h8.9"/><path class="cls-2" d="M278.53 684.94l-.1-3.82a8.15 8.15 0 0 0-4.34-7.13h-.24a8.15 8.15 0 0 0-4.34 7.13l-.1 3.82zM269.35 681.08h8.91"/><path class="cls-2" d="M287.58 684.94l-.11-3.82a8.15 8.15 0 0 0-4.33-7.13h-.25a8.15 8.15 0 0 0-4.33 7.13l-.11 3.82zM278.4 681.08h8.91M218.5 337.84h115.9"/><ellipse class="cls-2" cx="264.57" cy="123.71" rx="2.99" ry="2.18"/><ellipse class="cls-2" cx="264.57" cy="164.49" rx="2.99" ry="2.18"/><path class="cls-2" d="M144.03 729.92l3.2-5.84 3.19 5.84 5.84 3.2-5.84 3.19-3.19 5.85-3.2-5.85-5.84-3.19 5.84-3.2z"/><path class="cls-6" d="M83.65 545.21l3.19-5.84 3.2 5.84 5.84 3.19-5.84 3.2-3.2 5.84-3.19-5.84-5.84-3.2 5.84-3.19z"/><path class="cls-7" d="M55.32 911.21l3.19-5.84 3.2 5.84 5.84 3.19-5.84 3.2-3.2 5.84-3.19-5.84-5.85-3.2 5.85-3.19z"/><path class="cls-2" d="M414.21 389.31l3.2-5.84 3.19 5.84 5.85 3.2-5.85 3.2-3.19 5.84-3.2-5.84-5.84-3.2 5.84-3.2z"/><path class="cls-7" d="M149.37 365.93l3.2-5.84 3.19 5.84 5.85 3.2-5.85 3.19-3.19 5.85-3.2-5.85-5.84-3.19 5.84-3.2z"/><circle class="cls-1" cx="166.04" cy="705.6" r="2.92"/><circle class="cls-8" cx="343.37" cy="502.93" r="2.92"/><circle class="cls-1" cx="171.71" cy="398.85" r="2.92"/><circle class="cls-2" cx="157.04" cy="465.35" r="2.92"/><circle class="cls-2" cx="124.54" cy="561.6" r="2.92"/><path class="cls-6" d="M438.04 754.6l3.2-5.84 3.19 5.84 5.84 3.2-5.84 3.19-3.19 5.84-3.2-5.84-5.84-3.19 5.84-3.2z"/><circle class="cls-1" cx="459.43" cy="924.99" r="2.92"/><circle cx="501.43" cy="623.74" r="2.92" fill="#00ed92" stroke="#fff" stroke-linecap="round" stroke-linejoin="round" stroke-width="2.41"/><circle class="cls-2" cx="467.93" cy="790.99" r="2.92"/><circle class="cls-2" cx="417.59" cy="475.88" r="2.92"/><circle class="cls-2" cx="163.04" cy="775.52" r="2.92"/><circle class="cls-1" cx="439.72" cy="421.77" r="2.92"/><circle class="cls-1" cx="430.18" cy="598.04" r="2.92"/><path class="cls-10" d="M387.35 261.43a27.11 27.11 0 1 1 31.87 21.3 27.14 27.14 0 0 1-31.87-21.3zm50.51-10a24.39 24.39 0 1 0-19.17 28.68 24.42 24.42 0 0 0 19.17-28.72z"/><path class="cls-10" d="M423 232.23a1.33 1.33 0 0 1 .14-.91l5.86-10.7a1.35 1.35 0 0 1 .81-.65 1.37 1.37 0 0 1 1 .11L438 224a1.32 1.32 0 0 1 .65.81 1.28 1.28 0 0 1-.11 1l-2.6 4.76a1.37 1.37 0 0 1-1.85.53l-5.94-3.25-2.6 4.75a1.36 1.36 0 0 1-2.52-.39zm7.72-9.12l-1.3 2.38 4.75 2.6 1.31-2.37zM407.84 239.39a4.07 4.07 0 1 1 4.78 3.2 4.07 4.07 0 0 1-4.78-3.2zm5.32-1a1.36 1.36 0 1 0-1.07 1.59 1.36 1.36 0 0 0 1.07-1.64zM418.73 245.52a5.42 5.42 0 1 1 6.38 4.26 5.43 5.43 0 0 1-6.38-4.26zm8-1.59a2.71 2.71 0 1 0-2.13 3.19 2.72 2.72 0 0 0 2.11-3.19zM394 253.2a9.49 9.49 0 1 1 11.16 7.45A9.51 9.51 0 0 1 394 253.2zm16-3.2a6.77 6.77 0 1 0-5.32 8 6.77 6.77 0 0 0 5.32-8z"/><path class="cls-8" transform="rotate(-61.27 432.422 225.607)" d="M431.09 222.89h2.71v5.42h-2.71z"/><path class="cls-1" d="M261.86 703.32c-.55-11.08-27-17.1-27-17.1h-17s-15.61 6-16.17 17.1 6.11 146.45 25 198a6 6 0 0 0 5.5 2.65 5.71 5.71 0 0 0 4.7-2.65c18.86-51.55 25.53-186.93 24.97-198z"/><path class="cls-1" d="M301.2 703.32c-.51-11.08-14.8-17.1-14.8-17.1H261s-14.29 6-14.8 17.1 5.59 146.45 22.84 198a5.38 5.38 0 0 0 5 2.65 5.22 5.22 0 0 0 4.31-2.65c17.25-51.55 23.36-186.93 22.85-198z"/><path class="cls-1" d="M347 703.32c-.57-11.08-16.37-17.1-16.37-17.1h-17s-26.94 6-27.51 17.1 6.19 146.45 25.26 198a6.07 6.07 0 0 0 5.57 2.65 5.77 5.77 0 0 0 4.76-2.65c19.05-51.55 25.8-186.93 25.29-198z"/></svg>
